X:1
T:Title
%%score ( 1 2 ) { 3 | 4 }
L:1/8
Q:1/4=88
M:3/4
K:F
V:1 treble nm="Grand Piano, Soprano"
V:2 treble 
V:3 treble nm="Choir Pad, Bass"
V:4 bass 
V:1
 CF G A3 | Ac B A3 | F2 A c3 | BG _A =A3 | CF G A3 | FA c c2 B | FF G A3 | CG- G/F/ F3 | z2 z B3 | %9
w: By~Melville~Homer~Cummings,~Sr. * * *|||||||||
 z2 z A3- | A z z2 z2 | [=B,D][CE] [DF] [EG]3 | C[CF] [CG] [FA]3 | F[FA] [_Ec] [DB]3 | %14
w: |||||
 [DF][DF] [^CG] [=CA]3 | C[CG]- [CG]/[CF]/ [CF]3- | [CF]4 z2 |] %17
w: |||
V:2
 x6 | x6 | x6 | x6 | x6 | x6 | x6 | x6 | cd .c2 EE | Gc .B2 FF- | F [FA]2 [EG]3 | x6 | x6 | x6 | %14
 x6 | x6 | x6 |] %17
V:3
 A,A, B, C3 | z2 z C3 | A,2 C E3 | z2 z C3 | z2 z C3 | A,C F _E2 D | DD ^C =C3 | A,B,- B,/A,/ A,3 | %8
 z2 z2 G,G, | z2 z2[K:treble] CC- | C C2 C3 | G,G, =B, _B,3 | A,A, B, C3 | A,C F, F,3 | %14
 F,F, F, F,3 | A,B,- B,/A,/ A,3- | A,4 z2 |] %17
V:4
 z2 z F,, C,F, | CE DF,, C,F, | F,,2 z C, E,G, | DB, =B,F,, C,F, | A,A, B,F,, C,F, | %5
 z2 z [A,,,A,,]2 [B,,,B,,]- | [B,,,B,,]2 z C,3- | C, C,2 [F,,F,]3 | z2 z2 C,C, | z2 z2 F,F,- | %10
 F, F,2 G,3 | z2 G, C,3 | F,F, F, F,3 | F,F, A,, B,,3 | B,,B,, B,, C,3 | C,C,- C,/F,/ F,3- | %16
 F,4 z2 |] %17

